src/assets/icons/filters/categories/jobs_stroke.svg

<svg width="48" height="48" viewBox="0 0 48 48" fill="none" xmlns="http://www.w3.org/2000/svg">
<path fill-rule="evenodd" clip-rule="evenodd" d="M43.232 7.992C44.4973 7.99412 45.71 8.49824 46.604 9.39368C47.4979 10.2891 48 11.5027 48 12.768V28.8608C48 30.0288 47.3504 31.0416 46.4 31.5808V43.3184C46.3983 44.559 45.905 45.7483 45.0281 46.6258C44.1511 47.5033 42.9622 47.9975 41.7216 48H6.2784C5.03756 47.9975 3.84834 47.5031 2.97138 46.6252C2.09442 45.7474 1.60127 44.5576 1.6 43.3168V31.5792C0.6496 31.04 0 30.0272 0 28.8592V12.7664C0.000422015 11.5014 0.502696 10.2882 1.39659 9.39312C2.29049 8.49802 3.50299 7.99412 4.768 7.992H14.4V4.7728C14.4004 3.50821 14.9025 2.29545 15.7961 1.40065C16.6897 0.50585 17.9018 0.00211888 19.1664 0H28.8C30.0646 0.00211888 31.2767 0.50585 32.1703 1.40065C33.0639 2.29545 33.566 3.50821 33.5664 4.7728V7.992H43.232V7.992ZM43.2 43.3168V32.0016H30.4V33.3376C30.4 34.3648 29.5632 35.2048 28.5328 35.2048H19.4672C18.9722 35.204 18.4978 35.007 18.1478 34.657C17.7978 34.307 17.6008 33.8326 17.6 33.3376V32H4.8V43.3152C4.8 44.1312 5.464 44.7952 6.2784 44.7952H41.7216C42.1137 44.7944 42.4895 44.6381 42.7666 44.3607C43.0437 44.0833 43.1996 43.7073 43.2 43.3152V43.3168ZM25.6 36.8048C26.0248 36.8048 26.4321 36.9735 26.7325 37.2739C27.0329 37.5743 27.2016 37.9816 27.2016 38.4064C27.2016 38.8312 27.0329 39.2385 26.7325 39.5389C26.4321 39.8393 26.0248 40.008 25.6 40.008H22.4C21.9752 40.008 21.5679 39.8393 21.2675 39.5389C20.9671 39.2385 20.7984 38.8312 20.7984 38.4064C20.7984 37.9816 20.9671 37.5743 21.2675 37.2739C21.5679 36.9735 21.9752 36.8048 22.4 36.8048H25.6ZM27.2 26.0032C27.2 25.9035 27.1604 25.8078 27.0899 25.7373C27.0194 25.6668 26.9237 25.6272 26.824 25.6272H21.176C21.0763 25.6272 20.9806 25.6668 20.9101 25.7373C20.8396 25.8078 20.8 25.9035 20.8 26.0032V32H27.2V26V26.0032ZM22.864 27.6912C23.456 27.0992 24.528 27.0992 25.136 27.6912C25.424 27.9952 25.6 28.4112 25.6 28.8272C25.6024 29.0381 25.5626 29.2474 25.4831 29.4427C25.4035 29.6381 25.2858 29.8156 25.1368 29.9649C24.9878 30.1142 24.8105 30.2323 24.6153 30.3122C24.4201 30.3922 24.2109 30.4323 24 30.4304C23.7892 30.4325 23.58 30.3926 23.3848 30.3128C23.1896 30.2331 23.0123 30.1152 22.8633 29.966C22.7143 29.8168 22.5965 29.6394 22.517 29.4441C22.4374 29.2488 22.3976 29.0396 22.4 28.8288C22.4 28.4128 22.576 27.9968 22.864 27.6912ZM4.768 11.1952C3.904 11.1952 3.2 11.8992 3.2 12.7664V28.8H17.6V26.0048C17.6008 25.0562 17.9777 24.1466 18.648 23.4754C19.3183 22.8042 20.2274 22.4261 21.176 22.424H26.824C27.7723 22.4261 28.6811 22.804 29.3514 23.4749C30.0217 24.1457 30.3987 25.0549 30.4 26.0032V28.7984H44.8V12.7664C44.8 12.3502 44.6349 11.9511 44.3409 11.6565C44.047 11.362 43.6482 11.196 43.232 11.1952H4.768V11.1952ZM17.6 4.7728V7.992H30.3664V4.7728C30.366 4.35735 30.2009 3.95901 29.9072 3.66509C29.6136 3.37117 29.2155 3.20565 28.8 3.2048H19.1664C18.7508 3.20522 18.3524 3.37061 18.0587 3.66462C17.765 3.95863 17.6 4.35722 17.6 4.7728V4.7728Z" fill="black"/>
</svg>

<svg width="48" height="48" viewBox="0 0 48 48" fill="none" xmlns="http://www.w3.org/2000/svg"><path fill-rule="evenodd" clip-rule="evenodd" d="M43.232 7.992A4.776 4.776 0 0148 12.768v16.093a3.13 3.13 0 01-1.6 2.72v11.737A4.688 4.688 0 0141.722 48H6.278A4.688 4.688 0 011.6 43.317V31.579A3.13 3.13 0 010 28.86V12.766a4.776 4.776 0 014.768-4.774H14.4v-3.22A4.774 4.774 0 0119.166 0H28.8a4.774 4.774 0 014.766 4.773v3.219h9.666zM43.2 43.317V32.002H30.4v1.336a1.87 1.87 0 01-1.867 1.867h-9.066a1.87 1.87 0 01-1.867-1.867V32H4.8v11.315c0 .816.664 1.48 1.478 1.48h35.444a1.481 1.481 0 001.478-1.48v.002zm-17.6-6.512a1.601 1.601 0 110 3.203h-3.2a1.601 1.601 0 110-3.203h3.2zm1.6-10.802a.376.376 0 00-.376-.376h-5.648a.376.376 0 00-.376.376V32h6.4v-6 .003zm-4.336 1.688c.592-.592 1.664-.592 2.272 0 .288.304.464.72.464 1.136A1.585 1.585 0 0124 30.43a1.584 1.584 0 01-1.6-1.601c0-.416.176-.832.464-1.138zM4.768 11.195c-.864 0-1.568.704-1.568 1.571V28.8h14.4v-2.795a3.584 3.584 0 013.576-3.581h5.648a3.584 3.584 0 013.576 3.58v2.794h14.4V12.766a1.571 1.571 0 00-1.568-1.57H4.768zM17.6 4.773v3.219h12.766v-3.22A1.57 1.57 0 0028.8 3.206h-9.634A1.568 1.568 0 0017.6 4.773z" fill="#000"/></svg>
